src/assets/duotone/Brush4.svg

<svg width="24" height="24" viewBox="0 0 24 24"  xmlns="http://www.w3.org/2000/svg">
<path d="M15.5199 2.9C14.9199 2.3 14.0499 2 12.9299 2H7.34986C5.09986 2 3.85986 3.24 3.85986 5.49C3.85986 6.61 4.15986 7.48 4.75986 8.08C5.35986 8.68 6.22986 8.98 7.34986 8.98H12.9299C15.1799 8.98 16.4199 7.74 16.4199 5.49C16.4199 4.37 16.1199 3.5 15.5199 2.9Z" />
<path opacity="0.4" d="M10.6001 15.02H9.67008C8.72008 15.02 7.58008 15.38 7.58008 17.11V19.9C7.58008 21.63 8.72008 21.99 9.67008 21.99H10.6001C11.5501 21.99 12.6901 21.63 12.6901 19.9V17.11C12.7001 15.39 11.5601 15.02 10.6001 15.02Z" />
<path opacity="0.4" d="M16.6502 4.79004H16.3702C16.4002 5.01004 16.4202 5.24004 16.4202 5.49004C16.4202 5.74004 16.4002 5.97004 16.3702 6.19004H16.6502C18.7402 6.19004 18.7402 6.47004 18.7402 8.28004V10.14C18.7402 11.95 18.7402 12.23 16.6502 12.23H12.9302C9.9402 12.23 9.5102 13.65 9.4502 15.03C9.5202 15.03 9.6002 15.02 9.6702 15.02H10.6002C10.6802 15.02 10.7602 15.03 10.8502 15.03C10.9002 14.02 11.1902 13.62 12.9302 13.62H16.6502C19.9002 13.62 20.1402 12.3 20.1402 10.13V8.28004C20.1402 6.11004 19.9002 4.79004 16.6502 4.79004Z" />
</svg>

<?xml version="1.0" encoding="UTF-8"?>
<svg width="24" height="24" viewBox="0 0 24 24" xmlns="http://www.w3.org/2000/svg">
 <path d="m15.52 2.9c-0.6-0.6-1.47-0.9-2.59-0.9h-5.58c-2.25 0-3.49 1.24-3.49 3.49 0 1.12 0.3 1.99 0.9 2.59s1.47 0.9 2.59 0.9h5.58c2.25 0 3.49-1.24 3.49-3.49 0-1.12-0.3-1.99-0.9-2.59z"/>
 <path d="m10.6 15.02h-0.93002c-0.95 0-2.09 0.36-2.09 2.09v2.79c0 1.73 1.14 2.09 2.09 2.09h0.93002c0.95 0 2.09-0.36 2.09-2.09v-2.79c0.01-1.72-1.13-2.09-2.09-2.09z" opacity=".4"/>
 <path d="m16.65 4.79h-0.28c0.03 0.22 0.05 0.45 0.05 0.7s-0.02 0.48-0.05 0.7h0.28c2.09 0 2.09 0.28 2.09 2.09v1.86c0 1.81 0 2.09-2.09 2.09h-3.72c-2.99 0-3.42 1.42-3.48 2.8 0.07 0 0.15-0.01 0.22-0.01h0.93c0.08 0 0.16 0.01 0.25 0.01 0.05-1.01 0.34-1.41 2.08-1.41h3.72c3.25 0 3.49-1.32 3.49-3.49v-1.85c0-2.17-0.24-3.49-3.49-3.49z" opacity=".4"/>
</svg>
